X:50
T:Nancy of the Dale. JJo.050
S:J.Jones MS,1801,N.Shrops.
N:As in JJ049, last 4 bars or so seem to be a bridge to next verse.
A:N. Shropshire
Z:Neil Brookes 2006
M:4/4
L:1/8
Q:1/2=60
K:C
G2|c3dc3e|A2F>ED2G2|C2c2{cd}e2dc|d4z2d2|!
B2(3AGF G2e2|d<BAG c2A2|d/B/c/d/ e (3A/B/c/ B2TA2|G4z2G2|!
d3cB2(3AGF|E2G2c4|e2dcB2A2|E4z2A2|!
f3ed3c|B2c/d/e g2A>F|EGG2G2A>B|c4z2c3/d/4e/4|!
c<A A2z2d3/e/4f/4|B<GG2g4|e<c c3/d/4e/4G2TB2|c6|]

